X: 40308
T: Tom Barret's
R: polka
M: 2/4
K: Amajor
eA cA|e/f/e/d/ cA|eA cB/c/|dB B2|
eA cA|e/f/e/d/ cA|Bc/d/ e/f/e/d/|cA A2:|
Bc/d/ ef/g/|ag ed|Bc/d/ ef/g/|ag e2|
Bc/d/ ef/g/|ag ed|Bc/d/ e/f/e/d/|cA A2:|

